X:1
T:The Bright and Happy Land
T:The Bright and Happy Land
T:E. D. Beddall
T:E. D. Beddall, 1884
T:Public Domain Courtesy of the Cyber Hymnal™
T:Public Domain Courtesy of the Cyber Hymnal™
C:E. D. Beddall
Z:Public Domain
Z:Courtesy of the Cyber Hymnal™
%%score ( 1 2 ) ( 3 4 )
L:1/8
Q:1/4=93
M:4/4
K:A
V:1 treble 
V:2 treble 
V:3 bass 
V:4 bass 
V:1
 [CE]>[CE] [A,C]>[B,D] [CE]2 [CA]>[EG] | [DF]>[FA] [EG]>[DF] [CE]4 | %2
w: 1.~We are march- ing on to a|bright and hap- py land,|
w: 2.~We will fight for Je- sus as|on our way we go,|
w: 3.~Come and join our ranks, and for|glo- ry make a start,|
 [EG]>[EA] [EB]>[Ec] [EB]2 ([Ee]>[Ed]) | [Ec]>[Ec] [EB]>[^DA] [EB]4 | %4
w: Where the saints and an- gels *|ev- er- more shall stand|
w: In the bat- tle front we~will *|fight a- gainst the foe;|
w: Leave the world and sin, come~and *|with us take a part;|
 [CE]>[CE] [A,C]>[B,D] [CE]2 [CA]>[EG] | [DF]>[DF] [FA]>[FA] [Fd]2 [Fd]>[Fd] | %6
w: Round the throne of God, in a|ho- ly, hap- py band, Sing- ing,|
w: And a crown our Sav- ior up-|on us will be- stow, In the|
w: In the song of vic- t’ry we’ll|sing with voice and heart, Hal- le-|
 [Ec]2 [Ec]2 [DB]2 [DB]2 | [CA]6 ||"^Refrain" (cd) | [Ae]6 [Af]2 | [Ae]4 [Ec]4 | %11
w: glo- ry to the|Lamb.|Then, *|come and|join us,|
w: bright and hap- py|land.||||
w: lu- jah to the|Lamb.||||
 [Ec]>[Ec] [Ec]>[Ec] [EB]2 [^DA]2 | [EB]6 [EG]>[DF] | [CE]>[CE] [A,C]>[B,D] [CE]2 [CA]>[EG] | %14
w: come and join our hap- py|band, For with|Je- sus by our side, on our|
w: |||
w: |||
 [DF]>[DF] [FA]>[FA] [Fd]2 [Fd]>[Fd] | [Ec]2 [Ec]2 [DB]2 [DB]2 | [CA]6 |] %17
w: jour- ney He will guide To the|bright and hap- py|land.|
w: |||
w: |||
V:2
 x8 | x8 | x8 | x8 | x8 | x8 | x8 | x6 || A2 | x8 | x8 | x8 | x8 | x8 | x8 | x8 | x6 |] %17
V:3
 [A,,A,]>[A,,A,] [A,,E,]>[A,,E,] [A,,A,]2 [A,,A,]>[C,A,] | [D,A,]>[D,A,] [D,A,]>[D,A,] [A,,A,]4 | %2
w: ~ ~ ~ ~ ~ ~ ~|~ ~ ~ ~ ~|
 [E,B,]>[E,A,] [E,G,]>[E,A,] [E,G,]2 ([G,B,]>[G,B,]) | A,>A, [G,B,]>[F,B,] [E,G,]4 | %4
w: ~ ~ ~ ~ ~ ~ *|~ ~ ~ ~ ~|
 [A,,A,]>[A,,A,] [A,,E,]>[A,,E,] [A,,A,]2 [A,,A,]>[C,A,] | %5
w: ~ ~ ~ ~ ~ ~ ~|
 [D,A,]>[D,A,] [D,A,]>[D,A,] [D,A,]2 [D,A,]>[D,A,] | [E,A,]2 [E,A,]2 [E,G,]2 [E,G,]2 | [A,,A,]6 || %8
w: ~ ~ ~ ~ ~ ~ ~|~ ~ ~ ~|~|
 (A,B,) | [A,C]2 [A,C]2 [A,C]2 [A,D]2 | [A,C]2 [A,C]2 A,2 A,2 | [A,C]2 [A,C]2 A,2 A,2 | %12
w: Then, *|come and join us,|come and join us||
 [E,G,]6 [E,B,]>[E,G,] | [A,,A,]>[A,,A,] [A,,E,]>[A,,E,] [A,,A,]2 [A,,A,]>[C,A,] | %14
w: ||
 [D,A,]>[D,A,] [D,A,]>[D,A,] [D,A,]2 [D,A,]>[D,A,] | [E,A,]2 [E,A,]2 [E,G,]2 [E,G,]2 | [A,,A,]6 |] %17
w: |||
V:4
 x8 | x8 | x8 | A,>A, x6 | x8 | x8 | x8 | x6 || A,2 | x8 | x4 A,2 A,2 | x4 A,2 A,2 | x8 | x8 | x8 | %15
 x8 | x6 |] %17

